X: 1
T:Bonny Kate
C:Trad
N:A.D.Townsend - English Country Dance Tunes Vol 1 p 13
M:4/4
L:1/8
K:G
|:d2e2f2|g3f g2f2|g2d2d2B2|cd e2d2c2|
B2G2G2Ac|B2G4AB|c2A2A2c2|Bc d2c2B2|
[1A2:|[2A6|:Ac|B2G4AB|c2A2d2B2|e2c2c2de|
f4d2ef|g3f g2e2|de f2g2B2|cd e2d2c2|
[1B2G2G2:|[2B2G2G2f2
